X:1
T:Title
%%score { ( 1 3 ) | ( 2 4 ) }
L:1/8
M:6/8
K:Ab
V:1 treble nm="Grand Piano"
V:3 treble 
V:2 bass 
V:4 bass 
V:1
 z3 z2[Q:1/4=84] [CE] | [CE]>[DF][CE] E>FE | A3 E2 E | F>GF [=DF]>[DG][DA] | [EB]3- [EB]2 [Ed] | %5
 [Ec]>[Fd][Ec] [DGB]>[EGc][DGB] | [CFA]3 [DF]2 [=DFB] | [CE]>[CE][A,CE] [B,DG]>[A,DF][G,DE] | %8
[M:5/8] [A,CA]-[A,CA]- [A,CA]3 |[M:1/8] A |[M:3/4] AA [A,FA][FA]- [FA]/[FA]/[FA] | %11
 [Fd]>[Fd] [Fd] [Fd]2 d | cc cc- c/B/A |[M:7/8] e-e-e- e3 z | %14
[M:3/4] [Ec]>[DB] [CA][DB]- [DB]/[DFA]/[DF] |[M:7/8] A z z z z z2 |[M:3/4] E>E EG- G/F/E | %17
[M:5/8] [CA]-[CA]- [CA]3 |] %18
V:2
 z3 z2 [A,,A,] | [A,,A,]>[A,,A,][A,,A,] [E,G,D]>[E,G,D][E,G,D] | [F,A,C]3 [C,A,]2 [C,A,] | %3
 [D,A,D]>[D,A,D][D,A,D] [B,,B,]>[B,,B,][B,,A,] | [E,G,]3- [E,G,]2 [E,G,] | %5
 [A,,A,]>[A,,A,][A,,A,] E,>E,E, | F,3 D,2 B,, | E,>E,E, E,>E,E, |[M:5/8] A,,-A,,- A,,3 | %9
[M:1/8][K:treble] F |[M:3/4] FF[K:bass] D,[D,D]- [D,D]/[D,D]/[D,D] | %11
 [D,A,]>[D,A,] [D,A,] [D,A,]2 [E,G,E] | [A,E][A,CE] [A,E][A,E]- [A,E]/[G,B,E]/[F,B,=D] | %13
[M:7/8] [G,E]A,C D3 [E,B,] |[M:3/4] [A,,A,]>[A,,A,] [A,,A,][D,F,]- [D,F,]/D,/D, | %15
[M:7/8] z[K:treble] BA,[K:bass] [B,,B,]3 [D,A,D] | %16
[M:3/4] [E,A,C]>[E,A,C] [E,A,C][E,B,D]- [E,B,D]/[E,A,D]/[E,G,D] | %17
[M:5/8] [A,,A,]-[A,,A,]- [A,,A,]3 |] %18
V:3
 x6 | x6 | x6 | x6 | x6 | x6 | x6 | x6 |[M:5/8] x5 |[M:1/8] x |[M:3/4] x6 | x6 | x6 | %13
[M:7/8] z FA G3 [Gd] |[M:3/4] x6 |[M:7/8] [DF-]2 [Fc] [Fd]3 F |[M:3/4] x6 |[M:5/8] x5 |] %18
V:4
 x6 | x6 | x6 | x6 | x6 | x6 | x6 | x6 |[M:5/8] x5 |[M:1/8][K:treble] x |[M:3/4] x2[K:bass] x4 | %11
 x6 | x6 |[M:7/8] E,-E,-E,- E,3 z |[M:3/4] x6 |[M:7/8] D,3[K:treble][K:bass] z z z2 |[M:3/4] x6 | %17
[M:5/8] x5 |] %18

